svgs/sharp-light/bed-empty.svg

<svg xmlns="http://www.w3.org/2000/svg" viewBox="0 0 640 512"><!--! Font Awesome Pro 6.6.0 by @fontawesome - https://fontawesome.com License - https://fontawesome.com/license (Commercial License) Copyright 2024 Fonticons, Inc. --><path d="M32 48l0-16L0 32 0 48 0 208 0 336l0 64 0 64 0 16 32 0 0-16 0-48 576 0 0 48 0 16 32 0 0-16 0-64 0-64 0-128 0-16-16 0L32 192 32 48zM608 320L32 320l0-96 576 0 0 96zM32 352l576 0 0 32L32 384l0-32z"/></svg>

<svg xmlns="http://www.w3.org/2000/svg" viewBox="0 0 640 512"><!--! Font Awesome Pro 6.5.2 by @fontawesome - https://fontawesome.com License - https://fontawesome.com/license (Commercial License) Copyright 2024 Fonticons, Inc. --><path d="M32 48V32H0V48 208 336v64 64 16H32V464 416H608v48 16h32V464 400 336 208 192H624 32V48zM608 320H32V224H608v96zM32 352H608v32H32V352z"/></svg>
